utils/icons-generator/ic_status_reading.svg

<?xml version="1.0" encoding="UTF-8"?>
<svg xmlns="http://www.w3.org/2000/svg" xmlns:xlink="http://www.w3.org/1999/xlink" width="1000pt" height="1000pt" viewBox="0 0 1000 1000" version="1.1">
<g id="surface1">
<path style=" stroke:none;fill-rule:nonzero;fill:rgb(0%,0%,0%);fill-opacity:1;" d="M 500 481.25 C 401.667969 389.582031 270 333.332031 125 333.332031 L 125 791.667969 C 270 791.667969 401.667969 847.917969 500 939.582031 C 598.332031 848.332031 730 791.667969 875 791.667969 L 875 333.332031 C 730 333.332031 598.332031 389.582031 500 481.25 Z M 500 333.332031 C 569.167969 333.332031 625 277.5 625 208.332031 C 625 139.167969 569.167969 83.332031 500 83.332031 C 430.832031 83.332031 375 139.167969 375 208.332031 C 375 277.5 430.832031 333.332031 500 333.332031 Z M 500 333.332031 "/>
</g>
</svg>

<?xml version="1.0" encoding="UTF-8" standalone="no"?>
<svg
   xmlns:dc="http://purl.org/dc/elements/1.1/"
   xmlns:cc="http://creativecommons.org/ns#"
   xmlns:rdf="http://www.w3.org/1999/02/22-rdf-syntax-ns#"
   xmlns:svg="http://www.w3.org/2000/svg"
   xmlns="http://www.w3.org/2000/svg"
   xmlns:sodipodi="http://sodipodi.sourceforge.net/DTD/sodipodi-0.dtd"
   xmlns:inkscape="http://www.inkscape.org/namespaces/inkscape"
   width="1000pt"
   height="1000pt"
   viewBox="0 0 1000 1000"
   version="1.1"
   id="svg1495"
   sodipodi:docname="ic_status_reading.svg"
   inkscape:version="0.92.4 (5da689c313, 2019-01-14)">
  <metadata
     id="metadata1501">
    <rdf:RDF>
      <cc:Work
         rdf:about="">
        <dc:format>image/svg+xml</dc:format>
        <dc:type
           rdf:resource="http://purl.org/dc/dcmitype/StillImage" />
      </cc:Work>
    </rdf:RDF>
  </metadata>
  <defs
     id="defs1499" />
  <sodipodi:namedview
     pagecolor="#ffffff"
     bordercolor="#666666"
     borderopacity="1"
     objecttolerance="10"
     gridtolerance="10"
     guidetolerance="10"
     inkscape:pageopacity="0"
     inkscape:pageshadow="2"
     inkscape:window-width="2560"
     inkscape:window-height="1346"
     id="namedview1497"
     showgrid="false"
     inkscape:zoom="0.177"
     inkscape:cx="666.66667"
     inkscape:cy="666.66667"
     inkscape:window-x="-11"
     inkscape:window-y="-11"
     inkscape:window-maximized="1"
     inkscape:current-layer="svg1495" />
  <g
     id="surface1"
     transform="matrix(1.1649635,0,0,1.1649635,-82.481765,-95.828788)">
    <path
       style="fill:#000000;fill-opacity:1;fill-rule:nonzero;stroke:none"
       d="M 500,481.25 C 401.66797,389.58203 270,333.33203 125,333.33203 v 458.33594 c 145,0 276.66797,56.25 375,147.91406 98.33203,-91.25 230,-147.91406 375,-147.91406 V 333.33203 c -145,0 -276.66797,56.25 -375,147.91797 z m 0,-147.91797 c 69.16797,0 125,-55.83203 125,-125 0,-69.16406 -55.83203,-124.999999 -125,-124.999999 -69.16797,0 -125,55.835939 -125,124.999999 0,69.16797 55.83203,125 125,125 z m 0,0"
       id="path1492"
       inkscape:connector-curvature="0" />
  </g>
</svg>
